Sources/FrostedUI/Resources/Icons.xcassets/cameraFilled16.imageset/camera-filled-16.svg

<svg width="16" height="16" viewBox="0 0 16 16" fill="none" xmlns="http://www.w3.org/2000/svg" data-fui-icon="true">
  <path
    d="M9.59375 0.75C10.7337 0.750153 11.7848 1.36668 12.3418 2.36133L12.585 2.79492C12.7421 3.0756 13.0387 3.24984 13.3604 3.25C14.6799 3.25 15.75 4.32013 15.75 5.63965V12.0996C15.75 13.8393 14.3393 15.25 12.5996 15.25H3.40039C1.66069 15.25 0.25 13.8393 0.25 12.0996V5.63965C0.25 4.32011 1.32011 3.25 2.63965 3.25C2.96136 3.24985 3.25784 3.07564 3.41504 2.79492L3.6582 2.36133C4.2152 1.36665 5.26626 0.75017 6.40625 0.75H9.59375ZM8 5C6.067 5 4.5 6.567 4.5 8.5C4.5 10.433 6.067 12 8 12C9.933 12 11.5 10.433 11.5 8.5C11.5 6.567 9.933 5 8 5ZM8 6.5C9.10457 6.5 10 7.39543 10 8.5C10 9.60457 9.10457 10.5 8 10.5C6.89543 10.5 6 9.60457 6 8.5C6 7.39543 6.89543 6.5 8 6.5Z"
    fill="currentColor"
  />
</svg>

<svg xmlns="http://www.w3.org/2000/svg" width="16" height="16" fill="none" data-fui-icon="true" viewBox="0 0 16 16"><path fill="currentColor" d="M9.594.75a3.15 3.15 0 0 1 2.748 1.611l.243.434a.89.89 0 0 0 .775.455 2.39 2.39 0 0 1 2.39 2.39v6.46a3.15 3.15 0 0 1-3.15 3.15H3.4A3.15 3.15 0 0 1 .25 12.1V5.64a2.39 2.39 0 0 1 2.39-2.39.89.89 0 0 0 .775-.455l.243-.434A3.15 3.15 0 0 1 6.406.75zM8 5a3.5 3.5 0 1 0 0 7 3.5 3.5 0 0 0 0-7m0 1.5a2 2 0 1 1 0 4 2 2 0 0 1 0-4"/></svg>
